X:3
T:1. Pour quoy
T:(Ronde 1)
C:Tielman Susato
S:Tileman Susato: Danserye (1551)
R:Ronde
M:4/2
L:1/2
T: Tenor
K:C -8va
A2cc|BA_BA|G>F G/2A/2G/2F/2|E/2D/2ED2::AAAc-|c/2B/4A/4GAF|AAAc-|c/2B/4A/4^GA2|
A>BcA|A/2G/2A/2B/2cF|G>F G/2A/2G/2F/2|E/2D/2ED2|A>BcA|A/2G/2A/2B/2cF|G>F G/2A/2G/2F/2|E/2D/2ED2:|
